X: 1
T: Miss Mary Douglas (reel)
C: Niel Gow
R: reel, march
Z: John Chambers <jc:trillian.mit.edu>
M: 2/4
L: 1/16
%Q: 1/4=112
K: D
DE \
| "D"F2F2 FGFE | D4- D2FG | A2A2 ABAG | F4- F2A2 \
| "G"B2B2 G2B2 | "D"A2A2 F2D2 | "A7"E2E2 EDEF | "D"D4- D2 :|
|: CD \
| "A7"E2E2 E2DE | "D"F2F2 F2EF | "G"G2G2 GABG | "D"A6 CD \
| "A7"E2E2 E2DE | "D"F2F2 F2D2 | "A7"E2E2 EDEF | "D"D4- D2 :|
